icons/sun.svg

<svg width="24" height="24" viewBox="0 0 24 24" fill="none" xmlns="http://www.w3.org/2000/svg">
<path d="M12 2.00201V4.22374M12 19.7803V22.002M4.22396 11.9998H2.00223M21.9978 11.9998H19.7761M19.7761 4.22374L17.5543 6.44547M4.22396 4.22374L6.44568 6.44547M6.44568 17.5541L4.22396 19.7758M19.7761 19.7758L17.5543 17.5541M16.4435 11.9998C16.4435 13.1783 15.9753 14.3085 15.142 15.1418C14.3087 15.9751 13.1785 16.4432 12 16.4432C10.8215 16.4432 9.69132 15.9751 8.85801 15.1418C8.0247 14.3085 7.55655 13.1783 7.55655 11.9998C7.55655 10.8213 8.0247 9.6911 8.85801 8.85779C9.69132 8.02448 10.8215 7.55634 12 7.55634C13.1785 7.55634 14.3087 8.02448 15.142 8.85779C15.9753 9.6911 16.4435 10.8213 16.4435 11.9998Z" stroke="black" stroke-width="2" stroke-linecap="round" stroke-linejoin="round"/>
</svg>

<svg xmlns="http://www.w3.org/2000/svg" width="24" height="24" viewBox="0 0 24 24" fill="none" stroke="currentColor" stroke-width="2" stroke-linecap="round" stroke-linejoin="round">
<path d="M12 2.002v2.222m0 15.556v2.222M4.224 12H2.002m19.996 0h-2.222m0-7.776-2.222 2.221M4.224 4.224l2.222 2.221m0 11.11-2.222 2.22m15.552 0-2.222-2.22M16.444 12a4.443 4.443 0 1 1-8.887 0 4.443 4.443 0 0 1 8.887 0"/>
</svg>
